X: 1
T: the Waukin' o' the Fauld
R: strathspey
Z: 2006 John Chambers <jc:trillian.mit.edu>
S: printed MS of unknown origin
M: C
L: 1/16
K: Ador
G2 \
| "Am"EA3 A3B A4 g3e | "G"d3B A2G2 E4 D3E \
| "G"G3A B3A GE3 D3E | "G"G3A B3A "Em"G3E DG3 |
| "Am"EA3 A3B A4 G3A | "G"B3A G2d2 "C"e4 g3a \
| "G"b3a g3e d2ef g3B | "Em"A3G EG3 "Am"A4 A2 |]
B2 \
| "Am"Aa3 a3b "D"a4 g3a | "G"b4 a3g e4 d3e \
| "G"g3a gb3 G3A BG3 | "C"gfga gb3 "Em"G3A BG3 |
| "Am"Aa3 a3b "D"a4 g3f | "C"e3d eg3 a4 g3a \
| "G"bag2 age2 d2ef g3B | "Em"A3G EG3 "Am"A4 A2 |]

%%sep 1 1 500

